flaticon/design/eyedropper-1.svg

<svg xmlns="http://www.w3.org/2000/svg" width="32" height="32" viewBox="0 0 24 24">
    <path d="M3.285156 19.902344C3.128906 19.746094 2.875 19.746094 2.71875 19.902344L1.71875 20.902344C1.375 21.246094 1.1875 21.703125 1.1875 22.1875 1.1875 22.671875 1.375 23.128906 1.71875 23.46875 2.074219 23.824219 2.535156 24 3 24 3.464844 24 3.929688 23.824219 4.285156 23.46875 4.992188 22.761719 4.992188 21.609375 4.285156 20.902344zM3.71875 22.902344C3.324219 23.300781 2.679688 23.300781 2.285156 22.902344 2.09375 22.710938 1.988281 22.457031 1.988281 22.1875 1.988281 21.914062 2.09375 21.660156 2.285156 21.46875L3 20.753906 3.71875 21.46875C4.113281 21.863281 4.113281 22.507812 3.71875 22.902344zM22.066406 4.160156C22.964844 3.261719 23.066406 1.824219 22.296875.882812 21.867188.359375 21.234375.0390625 20.558594.00390625 19.882812-.03125 19.214844.222656 18.738281.699219L17.328125 2.109375C16.878906 2.558594 16.101562 2.558594 15.652344 2.109375L15.417969 1.878906C15.074219 1.53125 14.511719 1.535156 14.164062 1.878906L12.589844 3.453125C12.246094 3.796875 12.246094 4.359375 12.589844 4.707031L13.378906 5.496094 6.875 12C6.25 12.625 5.78125 13.398438 5.515625 14.273438 5.414062 14.613281 5.265625 14.9375 5.089844 15.242188 5.078125 15.261719 5.070312 15.28125 5.058594 15.300781 5.050781 15.316406 5.039062 15.328125 5.03125 15.34375 4.941406 15.488281 4.84375 15.628906 4.742188 15.765625 4.625 15.914062 4.5 16.054688 4.367188 16.1875L2.601562 17.953125 4.863281 20.214844 6.613281 18.464844C7.15625 17.921875 7.828125 17.523438 8.5625 17.304688 9.179688 17.121094 9.757812 16.824219 10.269531 16.441406 10.292969 16.421875 10.320312 16.40625 10.34375 16.390625 10.523438 16.25 10.691406 16.101562 10.847656 15.945312L17.339844 9.453125 18.125 10.242188C18.292969 10.410156 18.515625 10.5 18.753906 10.5 18.992188 10.5 19.214844 10.410156 19.378906 10.242188L20.953125 8.667969C21.121094 8.5 21.214844 8.277344 21.214844 8.039062 21.214844 7.804688 21.121094 7.582031 20.953125 7.414062L20.722656 7.179688C20.5 6.957031 20.375 6.660156 20.375 6.34375 20.375 6.027344 20.5 5.730469 20.722656 5.507812zM4.863281 19.082031L3.734375 17.953125 4.933594 16.753906C5.558594 16.128906 6.023438 15.351562 6.289062 14.476562 6.511719 13.757812 6.90625 13.097656 7.4375 12.566406L7.605469 12.398438 13.261719 12.398438 10.28125 15.378906C10.148438 15.511719 10.003906 15.640625 9.851562 15.757812 9.402344 16.109375 8.882812 16.375 8.335938 16.539062 8.054688 16.621094 7.78125 16.734375 7.519531 16.863281 6.976562 17.125 6.476562 17.472656 6.046875 17.898438zM14.0625 11.601562L8.40625 11.601562 13.945312 6.058594 16.773438 8.886719zM20.15625 7.746094L20.390625 7.976562C20.421875 8.011719 20.421875 8.066406 20.390625 8.101562L18.816406 9.675781C18.792969 9.695312 18.769531 9.699219 18.753906 9.699219 18.738281 9.699219 18.714844 9.695312 18.691406 9.675781L17.90625 8.886719 13.945312 4.929688 13.15625 4.140625C13.125 4.105469 13.125 4.050781 13.15625 4.019531L14.730469 2.441406C14.75 2.425781 14.769531 2.417969 14.792969 2.417969 14.816406 2.417969 14.835938 2.425781 14.855469 2.441406L15.085938 2.675781C15.460938 3.050781 15.960938 3.257812 16.488281 3.257812 17.019531 3.257812 17.519531 3.050781 17.894531 2.675781L19.304688 1.265625C19.621094.949219 20.058594.777344 20.515625.800781 20.976562.824219 21.386719 1.03125 21.675781 1.386719 22.1875 2.015625 22.109375 2.984375 21.5 3.59375L20.15625 4.9375C19.78125 5.3125 19.574219 5.8125 19.574219 6.34375 19.574219 6.871094 19.78125 7.371094 20.15625 7.746094zM20.15625 7.746094"/>
</svg>

<svg xmlns="http://www.w3.org/2000/svg" width="32" height="32" viewBox="0 0 24 24">
    <path d="M3.285 19.902a.4.4 0 0 0-.566 0l-1 1c-.344.344-.532.801-.532 1.285 0 .485.188.942.532 1.282A1.8 1.8 0 0 0 3 24c.465 0 .93-.176 1.285-.531a1.818 1.818 0 0 0 0-2.567zm.434 3a1.01 1.01 0 0 1-1.434 0 1.005 1.005 0 0 1-.297-.715c0-.273.106-.527.297-.718L3 20.754l.719.715c.394.394.394 1.039 0 1.433zm0 0M22.066 4.16c.899-.898 1-2.336.23-3.277a2.408 2.408 0 0 0-3.559-.184L17.33 2.11a1.21 1.21 0 0 1-1.676 0l-.234-.23a.888.888 0 0 0-1.254 0L12.59 3.453a.891.891 0 0 0 0 1.254l.789.79L6.875 12a5.437 5.437 0 0 0-1.36 2.273c-.1.34-.25.665-.425.97-.012.019-.02.038-.031.058-.008.015-.02.027-.028.043-.09.144-.187.285-.289.422-.117.148-.242.289-.375.421l-1.765 1.766 2.261 2.262 1.75-1.75a4.626 4.626 0 0 1 1.95-1.16 5.454 5.454 0 0 0 1.707-.864c.023-.02.05-.035.074-.05.18-.141.347-.29.504-.446l6.492-6.492.785.79a.88.88 0 0 0 .629.257c.238 0 .46-.09.625-.258l1.574-1.574a.884.884 0 0 0 0-1.254l-.23-.234a1.176 1.176 0 0 1 0-1.672zM4.863 19.082l-1.129-1.129 1.2-1.2a5.443 5.443 0 0 0 1.355-2.276 4.654 4.654 0 0 1 1.149-1.91l.167-.169h5.657l-2.98 2.98a4.624 4.624 0 0 1-1.945 1.16 5.075 5.075 0 0 0-.817.325 5.455 5.455 0 0 0-1.473 1.035zm9.2-7.48H8.405l5.54-5.543 2.827 2.828zm6.093-3.856l.235.23a.095.095 0 0 1 0 .126l-1.575 1.574a.096.096 0 0 1-.062.023.096.096 0 0 1-.063-.023l-.785-.79-3.96-3.956-.79-.79c-.031-.035-.031-.09 0-.12L14.73 2.44a.096.096 0 0 1 .063-.023c.023 0 .043.008.062.023l.23.235c.376.375.876.582 1.403.582.532 0 1.032-.207 1.407-.582l1.41-1.41A1.594 1.594 0 0 1 20.515.8c.462.023.872.23 1.16.586.512.629.434 1.597-.175 2.207l-1.344 1.344a1.977 1.977 0 0 0-.582 1.406c0 .527.207 1.027.582 1.402zm0 0"/>
</svg>
